X: 1
T: the Hippopotamus Song  (C)
C: Donald Swann & Michael Flanders (1952)
M: 3/4
L: 1/8
K: C
G2 |\
"C"c2 c2 c2 | cG E2 C2 | "F"D2 E2 F2 | "G7"E4 ED |\
"C"C2 c2 c2 | "G"B2 "Am"c2 "D7"A2 | "G7"G6 | z2 z2 G2 |
"C"c2 c2 c2 | cG E2 C2 | "F"D2 E2 F2 | "G7"E4 ed |\
"Am"c2 B2 A2 | "G"d2 B2 "D7"A2 | "G"G6- | G2 z2 A2 |
"Dm"d2 d2 d2 | "Am"A2 A2 A2 | "Bb"d2 d2 d2 | "A"A4 A2 |\
"Bb"f2 e2 "Gm"d2 | "Dm"d2 e2 "A7"^c2 | "Dm"d6 | d2 z2 G2 |
"C"A2 B2 "D7"c2 | "G"B2 G2 G2 | "C"A2 B2 "D7"c2 | "G"B2 G2 "Am"A2 |\
"Dm"f2 "C"e2 "Dm"d2 | "D7"c2 B2 A2 | "G7"G6- | G4 z2 ||
"Refrain"[|\
"C"c6 | G6 | "Dm"F2 E2 D2 | "G7"G6 |\
"C"c2 B2 c2 | "Am"A2 d2 c2 | "D7"B2 A2 B2 | "G"G4 "G7"G2 |
"C"e e3 "G7"d2 | "C"cG- G4 | "Dm"f2 f2 "A7"e2 | "Dm"d A3 "C7"G2 |\
"F"A2 B2 c2 | "C"G2 E2 C2 |
|[1,3 "Dm"D6- | "G7"D2 E2 D2 | "C"C6- |  C2 z2 z2 :|\
[3 "Dm"D2 F2 A2 | "G"g2 "F"e2 "D7"d2 | "C"c6- | cz z2 |]
